X: 38965
T: Swaggering Jig, The
R: slip jig
M: 9/8
K: Gmajor
|:BGG AGE DEG|BAG DE/F/G A3|BGG AGE DEG|cBA BGE D3:|
|:Bdd dg/f/e dBG|Bdd dBG A3|Bdd dg/f/e dBG|cBA BGE D3:|

